app/assets/images/icons/safe-zone.svg

<?xml version="1.0" encoding="UTF-8" standalone="no"?>
<svg width="30px" height="30px" viewBox="0 0 30 30" version="1.1" xmlns="http://www.w3.org/2000/svg" xmlns:xlink="http://www.w3.org/1999/xlink">
    <!-- Generator: Sketch 3.7.2 (28276) - http://www.bohemiancoding.com/sketch -->
    <title>safe-zone</title>
    <desc>Created with Sketch.</desc>
    <defs></defs>
    <g id="Icons" stroke="none" stroke-width="1" fill="none" fill-rule="evenodd">
        <g id="safe-zone" fill="#050505">
            <path d="M15,30 C23.2842712,30 30,23.2842712 30,15 C30,6.71572875 23.2842712,0 15,0 C6.71572875,0 0,6.71572875 0,15 C0,23.2842712 6.71572875,30 15,30 Z M15,28 C22.1797017,28 28,22.1797017 28,15 C28,7.82029825 22.1797017,2 15,2 C7.82029825,2 2,7.82029825 2,15 C2,22.1797017 7.82029825,28 15,28 Z M4.5306689,10.7045734 C3.96144618,9.76316351 4.40162726,9 5.50086422,9 L24.4991358,9 C25.6041826,9 26.0349432,9.769135 25.4693311,10.7045734 L16.0306689,26.3147201 C15.4614462,27.25613 14.5349432,27.2501585 13.9693311,26.3147201 L4.5306689,10.7045734 Z M7.51260579,11.8670518 C7.22950143,11.3881923 7.44463086,11 8.00087166,11 L21.9991283,11 C22.5518945,11 22.7692032,11.3903834 22.4873942,11.8670518 L15.5126058,23.6646216 C15.2295014,24.1434811 14.7692032,24.14129 14.4873942,23.6646216 L7.51260579,11.8670518 Z" id="Combined-Shape"></path>
        </g>
    </g>
</svg>

<?xml version="1.0" encoding="UTF-8" standalone="no"?>
<svg width="30" height="30" viewBox="0 0 30 30" xmlns="http://www.w3.org/2000/svg">
  <path d="M15 30c8.284 0 15-6.716 15-15 0-8.284-6.716-15-15-15C6.716 0 0 6.716 0 15c0 8.284 6.716 15 15 15zm0-2c7.18 0 13-5.82 13-13S22.18 2 15 2 2 7.82 2 15s5.82 13 13 13zM4.53 10.705C3.962 9.763 4.403 9 5.5 9h19c1.104 0 1.535.77.97 1.705l-9.44 15.61c-.569.941-1.495.935-2.06 0l-9.44-15.61zm2.983 1.162C7.23 11.388 7.445 11 8 11h13.998c.553 0 .77.39.488.867l-6.974 11.798c-.283.478-.744.476-1.026 0L7.513 11.867z" fill="#050505" fill-rule="evenodd"/>
</svg>
